{
 "compressionlevel": -1,
 "infinite": false,
 "width": 63,
 "height": 48,
 "tilewidth": 32,
 "tileheight": 32,
 "orientation": "orthogonal",
 "renderorder": "right-down",
 "type": "map",
 "version": "1.10",
 "tiledversion": "1.10.2",
 "nextlayerid": 3,
 "nextobjectid": 36,
 "backgroundcolor": "#0e141c",
 "tilesets": [
  {
   "firstgid": 1,
   "name": "sale",
   "image": "tileset.png",
   "imagewidth": 256,
   "imageheight": 96,
   "tilewidth": 32,
   "tileheight": 32,
   "tilecount": 24,
   "columns": 8,
   "margin": 0,
   "spacing": 0
  }
 ],
 "layers": [
  {
   "id": 1,
   "name": "sol",
   "type": "tilelayer",
   "visible": true,
   "opacity": 1,
   "x": 0,
   "y": 0,
   "width": 63,
   "height": 48,
   "data": [
    0,
    0,
    0,
    0,
    0,
    0,
    0,
    0,
    0,
    0,
    0,
    0,
    0,
    0,
    0,
    0,
    0,
    0,
    0,
    0,
    0,
    16,
    16,
    16,
    16,
    16,
    16,
    16,
    16,
    16,
    16,
    16,
    16,
    16,
    16,
    16,
    16,
    16,
    16,
    16,
    16,
    16,
    0,
    0,
    0,
    0,
    0,
    0,
    0,
    0,
    0,
    0,
    0,
    0,
    0,
    0,
    0,
    0,
    0,
    0,
    0,
    0,
    0,
    0,
    0,
    0,
    0,
    0,
    0,
    0,
    0,
    0,
    0,
    0,
    0,
    0,
    0,
    0,
    0,
    0,
    0,
    0,
    0,
    0,
    15,
    11,
    12,
    11,
    12,
    11,
    12,
    11,
    12,
    11,
    12,
    11,
    12,
    11,
    12,
    11,
    12,
    11,
    12,
    11,
    15,
    0,
    0,
    0,
    0,
    0,
    0,
    0,
    0,
    0,
    0,
    0,
    0,
    0,
    0,
    0,
    0,
    0,
    0,
    0,
    0,
    0,
    0,
    0,
    0,
    0,
    0,
    0,
    0,
    0,
    0,
    0,
    0,
    0,
    0,
    0,
    0,
    0,
    0,
    0,
    0,
    0,
    0,
    15,
    12,
    16,
    12,
    16,
    12,
    11,
    12,
    11,
    12,
    22,
    12,
    16,
    16,
    11,
    12,
    11,
    12,
    11,
    12,
    15,
    0,
    0,
    0,
    0,
    0,
    0,
    0,
    0,
    0,
    0,
    0,
    0,
    0,
    0,
    0,
    0,
    0,
    0,
    0,
    0,
    0,
    0,
    0,
    0,
    0,
    0,
    0,
    0,
    0,
    0,
    0,
    0,
    0,
    0,
    0,
    0,
    0,
    0,
    0,
    0,
    0,
    0,
    15,
    11,
    12,
    11,
    12,
    11,
    16,
    16,
    12,
    11,
    12,
    11,
    12,
    11,
    12,
    11,
    12,
    11,
    12,
    11,
    15,
    0,
    0,
    0,
    0,
    0,
    0,
    0,
    0,
    0,
    0,
    0,
    0,
    0,
    0,
    0,
    0,
    0,
    0,
    0,
    0,
    0,
    0,
    0,
    0,
    0,
    0,
    0,
    0,
    0,
    0,
    0,
    0,
    0,
    0,
    0,
    0,
    0,
    0,
    0,
    0,
    0,
    0,
    15,
    12,
    11,
    12,
    11,
    16,
    11,
    12,
    16,
    12,
    11,
    12,
    11,
    12,
    11,
    16,
    11,
    12,
    11,
    12,
    15,
    0,
    0,
    0,
    0,
    0,
    0,
    0,
    0,
    0,
    0,
    0,
    0,
    0,
    0,
    0,
    0,
    0,
    0,
    0,
    0,
    0,
    0,
    0,
    0,
    0,
    0,
    0,
    0,
    0,
    0,
    0,
    0,
    0,
    0,
    0,
    0,
    0,
    0,
    0,
    0,
    0,
    0,
    15,
    11,
    12,
    11,
    12,
    15,
    12,
    11,
    12,
    11,
    12,
    11,
    12,
    11,
    12,
    11,
    12,
    11,
    12,
    11,
    15,
    0,
    0,
    0,
    0,
    0,
    0,
    0,
    0,
    0,
    0,
    0,
    0,
    0,
    0,
    0,
    0,
    0,
    0,
    0,
    0,
    0,
    0,
    0,
    0,
    0,
    0,
    0,
    0,
    0,
    0,
    0,
    0,
    0,
    0,
    0,
    0,
    0,
    0,
    0,
    0,
    0,
    0,
    15,
    12,
    11,
    16,
    11,
    12,
    11,
    12,
    11,
    12,
    11,
    16,
    24,
    12,
    11,
    12,
    11,
    12,
    11,
    12,
    15,
    0,
    0,
    0,
    0,
    0,
    0,
    0,
    0,
    0,
    0,
    0,
    0,
    0,
    0,
    0,
    0,
    0,
    0,
    0,
    0,
    0,
    0,
    0,
    0,
    0,
    0,
    0,
    0,
    0,
    0,
    0,
    0,
    0,
    0,
    0,
    0,
    0,
    0,
    0,
    0,
    0,
    0,
    15,
    11,
    12,
    11,
    12,
    11,
    12,
    11,
    12,
    16,
    12,
    11,
    12,
    11,
    16,
    11,
    12,
    11,
    12,
    11,
    15,
    0,
    0,
    0,
    0,
    0,
    0,
    0,
    0,
    0,
    0,
    0,
    0,
    0,
    0,
    0,
    0,
    0,
    0,
    0,
    0,
    0,
    0,
    0,
    0,
    0,
    0,
    0,
    0,
    0,
    0,
    0,
    0,
    0,
    0,
    0,
    0,
    0,
    0,
    0,
    0,
    0,
    0,
    15,
    12,
    16,
    12,
    22,
    12,
    11,
    12,
    11,
    12,
    11,
    12,
    11,
    12,
    11,
    12,
    22,
    12,
    11,
    12,
    15,
    0,
    0,
    0,
    0,
    0,
    0,
    0,
    0,
    0,
    0,
    0,
    0,
    0,
    0,
    0,
    0,
    0,
    0,
    0,
    0,
    0,
    0,
    0,
    0,
    0,
    0,
    0,
    0,
    0,
    0,
    0,
    0,
    0,
    0,
    0,
    0,
    0,
    0,
    0,
    0,
    0,
    0,
    15,
    11,
    12,
    11,
    12,
    11,
    16,
    11,
    12,
    11,
    12,
    11,
    16,
    11,
    12,
    11,
    12,
    11,
    12,
    11,
    15,
    0,
    0,
    0,
    0,
    0,
    0,
    0,
    0,
    0,
    0,
    0,
    0,
    0,
    0,
    0,
    0,
    0,
    0,
    0,
    0,
    0,
    0,
    0,
    0,
    0,
    0,
    0,
    0,
    0,
    0,
    0,
    0,
    0,
    0,
    0,
    0,
    0,
    0,
    0,
    0,
    0,
    0,
    15,
    12,
    23,
    12,
    11,
    12,
    11,
    16,
    11,
    16,
    11,
    12,
    11,
    12,
    11,
    12,
    11,
    12,
    11,
    12,
    15,
    0,
    0,
    0,
    0,
    0,
    0,
    0,
    0,
    0,
    0,
    0,
    0,
    0,
    0,
    0,
    0,
    0,
    0,
    0,
    0,
    0,
    0,
    0,
    0,
    0,
    0,
    0,
    0,
    0,
    0,
    0,
    0,
    0,
    0,
    0,
    0,
    0,
    0,
    0,
    0,
    0,
    0,
    15,
    11,
    12,
    16,
    12,
    11,
    16,
    11,
    12,
    21,
    12,
    11,
    12,
    11,
    12,
    16,
    12,
    11,
    12,
    11,
    15,
    0,
    0,
    0,
    0,
    0,
    0,
    0,
    0,
    0,
    0,
    0,
    0,
    0,
    0,
    0,
    0,
    0,
    0,
    0,
    0,
    0,
    0,
    0,
    0,
    0,
    0,
    0,
    0,
    0,
    0,
    0,
    0,
    0,
    0,
    0,
    0,
    0,
    0,
    0,
    0,
    0,
    0,
    15,
    12,
    11,
    12,
    11,
    12,
    11,
    16,
    11,
    12,
    11,
    12,
    11,
    12,
    16,
    12,
    11,
    12,
    11,
    12,
    15,
    0,
    0,
    0,
    0,
    0,
    0,
    0,
    0,
    0,
    0,
    0,
    0,
    0,
    0,
    0,
    0,
    0,
    0,
    0,
    0,
    0,
    0,
    0,
    0,
    0,
    0,
    0,
    0,
    0,
    0,
    0,
    0,
    0,
    0,
    0,
    0,
    0,
    0,
    0,
    0,
    0,
    0,
    15,
    11,
    12,
    11,
    12,
    22,
    12,
    11,
    12,
    11,
    12,
    11,
    12,
    11,
    12,
    11,
    12,
    11,
    12,
    11,
    15,
    0,
    0,
    0,
    0,
    0,
    0,
    0,
    0,
    0,
    0,
    0,
    0,
    0,
    0,
    0,
    0,
    0,
    0,
    0,
    0,
    0,
    0,
    0,
    0,
    0,
    0,
    0,
    0,
    0,
    0,
    0,
    0,
    0,
    0,
    0,
    0,
    0,
    0,
    0,
    0,
    0,
    0,
    15,
    12,
    11,
    12,
    11,
    12,
    11,
    12,
    21,
    12,
    11,
    12,
    11,
    12,
    11,
    12,
    11,
    12,
    11,
    12,
    15,
    0,
    0,
    0,
    0,
    0,
    0,
    0,
    0,
    0,
    0,
    0,
    0,
    0,
    0,
    0,
    0,
    0,
    0,
    0,
    0,
    0,
    0,
    0,
    0,
    0,
    0,
    0,
    0,
    0,
    0,
    0,
    0,
    0,
    0,
    0,
    0,
    0,
    0,
    0,
    0,
    0,
    0,
    15,
    16,
    16,
    16,
    16,
    16,
    16,
    16,
    16,
    16,
    12,
    16,
    16,
    16,
    16,
    16,
    16,
    16,
    16,
    16,
    15,
    0,
    0,
    0,
    0,
    0,
    0,
    0,
    0,
    0,
    0,
    0,
    0,
    0,
    0,
    0,
    0,
    0,
    0,
    0,
    0,
    0,
    0,
    0,
    0,
    0,
    0,
    0,
    0,
    0,
    0,
    0,
    0,
    0,
    0,
    0,
    0,
    0,
    0,
    0,
    0,
    0,
    0,
    15,
    15,
    15,
    15,
    15,
    15,
    15,
    15,
    15,
    20,
    20,
    20,
    15,
    15,
    15,
    15,
    15,
    15,
    15,
    15,
    15,
    16,
    16,
    16,
    16,
    16,
    16,
    16,
    16,
    16,
    16,
    16,
    16,
    16,
    16,
    16,
    16,
    16,
    16,
    16,
    16,
    16,
    0,
    0,
    0,
    0,
    0,
    0,
    0,
    0,
    0,
    0,
    0,
    0,
    0,
    0,
    0,
    0,
    0,
    0,
    0,
    0,
    0,
    15,
    9,
    10,
    9,
    10,
    9,
    10,
    9,
    10,
    22,
    10,
    9,
    10,
    9,
    10,
    9,
    10,
    9,
    10,
    9,
    15,
    15,
    8,
    7,
    8,
    7,
    8,
    7,
    8,
    7,
    8,
    7,
    8,
    7,
    8,
    7,
    8,
    7,
    8,
    7,
    8,
    15,
    0,
    0,
    0,
    0,
    0,
    0,
    0,
    0,
    0,
    0,
    0,
    0,
    0,
    0,
    0,
    0,
    0,
    0,
    0,
    0,
    0,
    15,
    10,
    9,
    10,
    9,
    16,
    16,
    10,
    21,
    10,
    9,
    16,
    24,
    10,
    9,
    10,
    9,
    10,
    9,
    10,
    15,
    15,
    7,
    16,
    7,
    8,
    16,
    8,
    24,
    8,
    7,
    8,
    7,
    8,
    7,
    8,
    7,
    8,
    7,
    8,
    7,
    15,
    0,
    0,
    0,
    0,
    0,
    0,
    0,
    0,
    0,
    0,
    0,
    0,
    0,
    0,
    0,
    0,
    0,
    0,
    0,
    0,
    0,
    15,
    9,
    10,
    9,
    10,
    9,
    10,
    9,
    10,
    9,
    10,
    9,
    10,
    9,
    10,
    9,
    10,
    9,
    10,
    9,
    15,
    15,
    8,
    7,
    8,
    7,
    15,
    22,
    8,
    7,
    16,
    16,
    8,
    7,
    8,
    7,
    8,
    24,
    8,
    22,
    8,
    15,
    0,
    0,
    0,
    0,
    0,
    0,
    0,
    0,
    0,
    0,
    0,
    0,
    0,
    0,
    0,
    0,
    0,
    0,
    0,
    0,
    0,
    15,
    10,
    16,
    10,
    9,
    10,
    9,
    10,
    16,
    10,
    9,
    10,
    9,
    10,
    9,
    16,
    9,
    10,
    9,
    10,
    15,
    15,
    7,
    8,
    16,
    8,
    7,
    8,
    7,
    8,
    7,
    8,
    7,
    16,
    7,
    8,
    22,
    16,
    7,
    8,
    7,
    15,
    0,
    0,
    0,
    0,
    0,
    0,
    0,
    0,
    0,
    0,
    0,
    0,
    0,
    0,
    0,
    0,
    0,
    0,
    0,
    0,
    0,
    15,
    9,
    10,
    9,
    10,
    9,
    16,
    9,
    10,
    9,
    10,
    9,
    10,
    16,
    10,
    9,
    10,
    9,
    10,
    9,
    15,
    15,
    8,
    7,
    8,
    7,
    8,
    7,
    8,
    7,
    16,
    7,
    8,
    7,
    8,
    7,
    8,
    7,
    16,
    21,
    8,
    15,
    0,
    0,
    0,
    0,
    0,
    0,
    0,
    0,
    0,
    0,
    0,
    0,
    0,
    0,
    0,
    0,
    0,
    0,
    0,
    0,
    0,
    15,
    10,
    9,
    10,
    9,
    10,
    9,
    10,
    9,
    10,
    9,
    10,
    9,
    15,
    9,
    10,
    9,
    10,
    9,
    10,
    15,
    18,
    7,
    8,
    7,
    8,
    7,
    8,
    7,
    16,
    7,
    8,
    7,
    8,
    7,
    8,
    7,
    16,
    7,
    8,
    7,
    15,
    0,
    0,
    0,
    0,
    0,
    0,
    0,
    0,
    0,
    0,
    0,
    0,
    0,
    0,
    0,
    0,
    0,
    0,
    0,
    0,
    0,
    15,
    24,
    10,
    9,
    10,
    9,
    10,
    9,
    10,
    9,
    10,
    16,
    10,
    15,
    16,
    9,
    10,
    9,
    10,
    23,
    10,
    18,
    8,
    16,
    8,
    7,
    16,
    22,
    8,
    15,
    8,
    7,
    8,
    7,
    8,
    16,
    8,
    7,
    8,
    22,
    8,
    15,
    0,
    0,
    0,
    0,
    0,
    0,
    0,
    0,
    0,
    0,
    0,
    0,
    0,
    0,
    0,
    0,
    0,
    0,
    0,
    0,
    0,
    15,
    10,
    9,
    10,
    9,
    16,
    24,
    16,
    9,
    10,
    21,
    10,
    22,
    15,
    9,
    10,
    9,
    10,
    9,
    10,
    16,
    18,
    7,
    8,
    7,
    8,
    7,
    8,
    7,
    8,
    7,
    8,
    7,
    8,
    7,
    8,
    7,
    8,
    7,
    8,
    23,
    15,
    0,
    0,
    0,
    0,
    0,
    0,
    0,
    0,
    0,
    0,
    0,
    0,
    0,
    0,
    0,
    0,
    0,
    0,
    0,
    0,
    0,
    15,
    9,
    10,
    9,
    10,
    15,
    10,
    9,
    10,
    16,
    10,
    9,
    10,
    15,
    10,
    9,
    10,
    9,
    10,
    9,
    15,
    16,
    8,
    16,
    8,
    7,
    8,
    7,
    8,
    7,
    16,
    7,
    8,
    7,
    8,
    7,
    8,
    7,
    8,
    7,
    8,
    15,
    0,
    0,
    0,
    0,
    0,
    0,
    0,
    0,
    0,
    0,
    0,
    0,
    0,
    0,
    0,
    0,
    0,
    0,
    0,
    0,
    0,
    15,
    10,
    9,
    16,
    9,
    10,
    9,
    10,
    9,
    10,
    9,
    16,
    16,
    10,
    9,
    10,
    9,
    10,
    9,
    10,
    15,
    15,
    7,
    8,
    7,
    8,
    7,
    16,
    7,
    8,
    22,
    16,
    7,
    16,
    7,
    8,
    7,
    8,
    7,
    8,
    7,
    15,
    0,
    0,
    0,
    0,
    0,
    0,
    0,
    0,
    0,
    0,
    0,
    0,
    0,
    0,
    0,
    0,
    0,
    0,
    0,
    0,
    0,
    15,
    9,
    10,
    9,
    16,
    9,
    10,
    9,
    10,
    9,
    10,
    15,
    10,
    9,
    10,
    9,
    10,
    9,
    10,
    9,
    15,
    15,
    8,
    7,
    16,
    16,
    8,
    7,
    8,
    7,
    8,
    7,
    8,
    7,
    8,
    7,
    8,
    7,
    8,
    7,
    8,
    15,
    0,
    0,
    0,
    0,
    0,
    0,
    0,
    0,
    0,
    0,
    0,
    0,
    0,
    0,
    0,
    0,
    0,
    0,
    0,
    0,
    0,
    15,
    10,
    9,
    10,
    9,
    10,
    16,
    10,
    9,
    10,
    9,
    10,
    9,
    10,
    16,
    10,
    9,
    10,
    9,
    10,
    15,
    15,
    7,
    8,
    7,
    8,
    7,
    8,
    7,
    16,
    7,
    8,
    7,
    8,
    7,
    8,
    7,
    8,
    7,
    8,
    7,
    15,
    0,
    0,
    0,
    0,
    0,
    0,
    0,
    0,
    0,
    0,
    0,
    0,
    0,
    0,
    0,
    0,
    0,
    0,
    0,
    0,
    0,
    15,
    9,
    10,
    9,
    10,
    9,
    10,
    9,
    10,
    9,
    10,
    9,
    10,
    9,
    10,
    9,
    10,
    9,
    10,
    21,
    15,
    15,
    8,
    7,
    8,
    7,
    8,
    7,
    8,
    7,
    8,
    21,
    8,
    7,
    8,
    7,
    8,
    7,
    8,
    7,
    8,
    15,
    0,
    0,
    0,
    0,
    0,
    0,
    0,
    0,
    0,
    0,
    0,
    0,
    0,
    0,
    0,
    0,
    0,
    0,
    0,
    0,
    0,
    15,
    10,
    9,
    10,
    9,
    10,
    9,
    10,
    9,
    10,
    9,
    10,
    9,
    10,
    9,
    10,
    9,
    10,
    9,
    10,
    15,
    15,
    7,
    8,
    7,
    8,
    7,
    8,
    7,
    8,
    7,
    8,
    7,
    8,
    7,
    8,
    7,
    8,
    7,
    8,
    7,
    15,
    0,
    0,
    0,
    0,
    0,
    0,
    0,
    0,
    0,
    0,
    0,
    0,
    0,
    0,
    0,
    0,
    0,
    0,
    0,
    0,
    0,
    15,
    16,
    16,
    16,
    16,
    16,
    16,
    16,
    16,
    16,
    16,
    16,
    16,
    16,
    16,
    16,
    16,
    16,
    16,
    16,
    15,
    15,
    16,
    16,
    16,
    16,
    16,
    16,
    16,
    16,
    16,
    7,
    16,
    16,
    16,
    16,
    16,
    16,
    16,
    16,
    16,
    15,
    16,
    16,
    16,
    16,
    16,
    16,
    16,
    16,
    16,
    16,
    16,
    16,
    16,
    16,
    16,
    16,
    16,
    16,
    16,
    16,
    16,
    15,
    15,
    15,
    15,
    15,
    15,
    15,
    15,
    15,
    15,
    15,
    15,
    15,
    15,
    15,
    15,
    15,
    15,
    15,
    15,
    15,
    15,
    15,
    15,
    15,
    15,
    15,
    15,
    15,
    15,
    19,
    19,
    19,
    15,
    15,
    15,
    15,
    15,
    15,
    15,
    15,
    15,
    15,
    2,
    1,
    2,
    1,
    2,
    23,
    2,
    1,
    2,
    1,
    2,
    1,
    2,
    1,
    2,
    1,
    2,
    1,
    2,
    15,
    15,
    3,
    4,
    3,
    4,
    3,
    4,
    3,
    4,
    3,
    4,
    3,
    4,
    3,
    4,
    3,
    4,
    3,
    4,
    3,
    15,
    15,
    6,
    5,
    6,
    5,
    6,
    5,
    6,
    5,
    6,
    5,
    6,
    5,
    6,
    5,
    6,
    5,
    6,
    5,
    6,
    15,
    15,
    1,
    13,
    14,
    13,
    13,
    13,
    13,
    2,
    1,
    16,
    1,
    2,
    1,
    2,
    1,
    2,
    16,
    2,
    1,
    15,
    15,
    4,
    3,
    4,
    3,
    16,
    22,
    4,
    3,
    4,
    3,
    4,
    3,
    4,
    3,
    4,
    3,
    4,
    3,
    4,
    15,
    15,
    23,
    6,
    5,
    6,
    5,
    6,
    5,
    6,
    16,
    6,
    5,
    6,
    5,
    6,
    5,
    6,
    5,
    6,
    5,
    15,
    15,
    2,
    13,
    13,
    13,
    13,
    13,
    14,
    23,
    2,
    1,
    2,
    1,
    16,
    1,
    2,
    1,
    2,
    1,
    2,
    15,
    15,
    3,
    16,
    3,
    4,
    3,
    4,
    16,
    4,
    3,
    4,
    3,
    4,
    3,
    4,
    3,
    4,
    3,
    4,
    23,
    15,
    15,
    6,
    23,
    6,
    5,
    6,
    5,
    6,
    5,
    6,
    5,
    6,
    5,
    16,
    5,
    6,
    16,
    16,
    5,
    6,
    15,
    15,
    1,
    13,
    13,
    14,
    13,
    13,
    14,
    2,
    1,
    16,
    1,
    2,
    22,
    16,
    1,
    2,
    16,
    2,
    1,
    15,
    15,
    4,
    15,
    4,
    3,
    4,
    3,
    4,
    3,
    4,
    3,
    4,
    3,
    4,
    3,
    4,
    3,
    16,
    3,
    4,
    15,
    15,
    21,
    16,
    5,
    6,
    5,
    6,
    5,
    6,
    5,
    6,
    5,
    16,
    5,
    6,
    5,
    6,
    5,
    6,
    23,
    15,
    15,
    2,
    13,
    13,
    13,
    13,
    13,
    13,
    16,
    2,
    1,
    2,
    1,
    2,
    1,
    16,
    1,
    15,
    1,
    2,
    15,
    15,
    3,
    4,
    3,
    4,
    16,
    4,
    3,
    4,
    3,
    4,
    3,
    4,
    3,
    4,
    3,
    4,
    3,
    4,
    3,
    15,
    15,
    6,
    5,
    16,
    5,
    6,
    16,
    6,
    5,
    6,
    5,
    6,
    5,
    6,
    24,
    6,
    5,
    6,
    5,
    6,
    15,
    15,
    1,
    2,
    1,
    2,
    1,
    2,
    1,
    2,
    1,
    16,
    1,
    2,
    1,
    2,
    1,
    16,
    21,
    2,
    1,
    15,
    3,
    4,
    16,
    4,
    3,
    4,
    3,
    16,
    3,
    4,
    3,
    4,
    16,
    16,
    3,
    4,
    3,
    16,
    3,
    4,
    15,
    17,
    5,
    6,
    5,
    6,
    5,
    6,
    5,
    6,
    16,
    6,
    5,
    16,
    23,
    6,
    5,
    6,
    5,
    6,
    5,
    15,
    15,
    2,
    1,
    2,
    1,
    2,
    1,
    2,
    1,
    2,
    1,
    2,
    16,
    2,
    1,
    2,
    1,
    2,
    21,
    2,
    1,
    4,
    3,
    4,
    3,
    4,
    3,
    4,
    3,
    4,
    3,
    4,
    3,
    15,
    3,
    4,
    3,
    4,
    3,
    4,
    3,
    4,
    17,
    6,
    5,
    16,
    16,
    16,
    5,
    6,
    5,
    6,
    5,
    6,
    5,
    6,
    5,
    6,
    5,
    6,
    5,
    6,
    15,
    15,
    1,
    2,
    1,
    2,
    1,
    2,
    1,
    2,
    1,
    2,
    1,
    2,
    1,
    2,
    1,
    2,
    16,
    2,
    1,
    16,
    3,
    4,
    3,
    4,
    3,
    4,
    3,
    16,
    3,
    4,
    3,
    4,
    15,
    4,
    16,
    4,
    22,
    4,
    3,
    4,
    16,
    17,
    5,
    6,
    5,
    6,
    5,
    6,
    5,
    6,
    5,
    6,
    5,
    6,
    16,
    6,
    5,
    6,
    24,
    6,
    5,
    15,
    15,
    2,
    1,
    2,
    1,
    2,
    1,
    2,
    1,
    2,
    1,
    2,
    1,
    2,
    1,
    16,
    1,
    2,
    1,
    2,
    15,
    16,
    22,
    4,
    3,
    4,
    3,
    4,
    15,
    4,
    23,
    4,
    3,
    4,
    16,
    4,
    3,
    4,
    3,
    4,
    3,
    15,
    16,
    6,
    5,
    6,
    5,
    6,
    5,
    6,
    5,
    6,
    5,
    16,
    16,
    6,
    5,
    6,
    5,
    6,
    5,
    6,
    15,
    15,
    1,
    2,
    1,
    2,
    1,
    2,
    1,
    2,
    1,
    2,
    1,
    2,
    1,
    2,
    15,
    2,
    1,
    2,
    1,
    15,
    15,
    4,
    16,
    4,
    3,
    4,
    3,
    4,
    3,
    4,
    16,
    4,
    3,
    4,
    3,
    4,
    3,
    4,
    3,
    4,
    15,
    15,
    5,
    16,
    5,
    6,
    5,
    16,
    5,
    16,
    5,
    6,
    5,
    6,
    5,
    6,
    24,
    6,
    5,
    6,
    5,
    15,
    15,
    2,
    1,
    2,
    1,
    2,
    24,
    2,
    1,
    2,
    1,
    2,
    1,
    16,
    1,
    2,
    1,
    2,
    24,
    2,
    15,
    15,
    3,
    4,
    3,
    16,
    3,
    16,
    3,
    4,
    16,
    4,
    3,
    4,
    3,
    4,
    3,
    4,
    3,
    4,
    3,
    15,
    15,
    6,
    5,
    6,
    16,
    6,
    5,
    6,
    5,
    6,
    5,
    6,
    16,
    6,
    5,
    6,
    5,
    6,
    5,
    6,
    15,
    15,
    1,
    2,
    1,
    2,
    1,
    2,
    1,
    2,
    1,
    2,
    1,
    2,
    23,
    16,
    16,
    2,
    1,
    2,
    1,
    15,
    15,
    4,
    3,
    4,
    3,
    4,
    3,
    4,
    3,
    4,
    3,
    4,
    3,
    4,
    16,
    4,
    3,
    4,
    3,
    4,
    15,
    15,
    5,
    6,
    5,
    6,
    5,
    6,
    5,
    6,
    16,
    6,
    16,
    6,
    5,
    6,
    5,
    6,
    5,
    6,
    5,
    15,
    15,
    2,
    1,
    2,
    1,
    2,
    1,
    2,
    1,
    2,
    1,
    2,
    1,
    2,
    1,
    2,
    1,
    2,
    23,
    2,
    15,
    15,
    3,
    4,
    3,
    4,
    3,
    4,
    3,
    4,
    3,
    4,
    21,
    4,
    3,
    4,
    3,
    4,
    3,
    4,
    3,
    15,
    15,
    6,
    21,
    6,
    5,
    6,
    5,
    6,
    5,
    6,
    5,
    6,
    5,
    6,
    5,
    6,
    23,
    6,
    5,
    6,
    15,
    15,
    1,
    2,
    1,
    2,
    1,
    2,
    1,
    2,
    1,
    2,
    1,
    2,
    1,
    2,
    1,
    2,
    21,
    2,
    1,
    15,
    15,
    4,
    3,
    4,
    3,
    4,
    3,
    4,
    3,
    4,
    23,
    4,
    3,
    4,
    3,
    4,
    3,
    4,
    23,
    4,
    15,
    15,
    5,
    6,
    5,
    6,
    5,
    6,
    5,
    6,
    5,
    6,
    5,
    6,
    5,
    6,
    5,
    6,
    5,
    6,
    5,
    15,
    15,
    16,
    16,
    16,
    16,
    16,
    16,
    16,
    16,
    16,
    16,
    16,
    16,
    16,
    16,
    16,
    16,
    16,
    16,
    16,
    15,
    15,
    16,
    16,
    16,
    16,
    16,
    16,
    16,
    16,
    16,
    16,
    16,
    16,
    16,
    16,
    16,
    16,
    16,
    16,
    16,
    15,
    15,
    16,
    16,
    16,
    16,
    16,
    16,
    16,
    16,
    16,
    16,
    16,
    16,
    16,
    16,
    16,
    16,
    16,
    16,
    16,
    15
   ]
  },
  {
   "id": 2,
   "name": "entites",
   "type": "objectgroup",
   "visible": true,
   "opacity": 1,
   "x": 0,
   "y": 0,
   "draworder": "topdown",
   "objects": [
    {
     "id": 1,
     "name": "petitnoir",
     "type": "recruit",
     "x": 192,
     "y": 1248,
     "width": 32,
     "height": 32,
     "visible": true,
     "rotation": 0,
     "properties": [
      {
       "name": "entryId",
       "type": "string",
       "value": "petitnoir"
      }
     ]
    },
    {
     "id": 2,
     "name": "felic",
     "type": "recruit",
     "x": 352,
     "y": 1120,
     "width": 32,
     "height": 32,
     "visible": true,
     "rotation": 0,
     "properties": [
      {
       "name": "entryId",
       "type": "string",
       "value": "felic"
      }
     ]
    },
    {
     "id": 3,
     "name": "blague",
     "type": "recruit",
     "x": 896,
     "y": 1376,
     "width": 32,
     "height": 32,
     "visible": true,
     "rotation": 0,
     "properties": [
      {
       "name": "entryId",
       "type": "string",
       "value": "blague"
      }
     ]
    },
    {
     "id": 4,
     "name": "oris",
     "type": "recruit",
     "x": 992,
     "y": 1184,
     "width": 32,
     "height": 32,
     "visible": true,
     "rotation": 0,
     "properties": [
      {
       "name": "entryId",
       "type": "string",
       "value": "oris"
      }
     ]
    },
    {
     "id": 5,
     "name": "daniel",
     "type": "recruit",
     "x": 736,
     "y": 1376,
     "width": 32,
     "height": 32,
     "visible": true,
     "rotation": 0,
     "properties": [
      {
       "name": "entryId",
       "type": "string",
       "value": "daniel"
      }
     ]
    },
    {
     "id": 6,
     "name": "muri",
     "type": "recruit",
     "x": 1184,
     "y": 1248,
     "width": 32,
     "height": 32,
     "visible": true,
     "rotation": 0,
     "properties": [
      {
       "name": "entryId",
       "type": "string",
       "value": "muri"
      }
     ]
    },
    {
     "id": 7,
     "name": "lee",
     "type": "recruit",
     "x": 1056,
     "y": 1120,
     "width": 32,
     "height": 32,
     "visible": true,
     "rotation": 0,
     "properties": [
      {
       "name": "entryId",
       "type": "string",
       "value": "lee"
      }
     ]
    },
    {
     "id": 8,
     "name": "qui",
     "type": "recruit",
     "x": 1664,
     "y": 1184,
     "width": 32,
     "height": 32,
     "visible": true,
     "rotation": 0,
     "properties": [
      {
       "name": "entryId",
       "type": "string",
       "value": "qui"
      }
     ]
    },
    {
     "id": 9,
     "name": "tressale",
     "type": "recruit",
     "x": 1856,
     "y": 1248,
     "width": 32,
     "height": 32,
     "visible": true,
     "rotation": 0,
     "properties": [
      {
       "name": "entryId",
       "type": "string",
       "value": "tressale"
      }
     ]
    },
    {
     "id": 10,
     "name": "quoimg",
     "type": "recruit",
     "x": 1824,
     "y": 1152,
     "width": 32,
     "height": 32,
     "visible": true,
     "rotation": 0,
     "properties": [
      {
       "name": "entryId",
       "type": "string",
       "value": "quoimg"
      }
     ]
    },
    {
     "id": 11,
     "name": "uuh",
     "type": "recruit",
     "x": 1728,
     "y": 1280,
     "width": 32,
     "height": 32,
     "visible": true,
     "rotation": 0,
     "properties": [
      {
       "name": "entryId",
       "type": "string",
       "value": "uuh"
      }
     ]
    },
    {
     "id": 12,
     "name": "aqua",
     "type": "recruit",
     "x": 1504,
     "y": 1376,
     "width": 32,
     "height": 32,
     "visible": true,
     "rotation": 0,
     "properties": [
      {
       "name": "entryId",
       "type": "string",
       "value": "aqua"
      }
     ]
    },
    {
     "id": 13,
     "name": "darius",
     "type": "recruit",
     "x": 1440,
     "y": 736,
     "width": 32,
     "height": 32,
     "visible": true,
     "rotation": 0,
     "properties": [
      {
       "name": "entryId",
       "type": "string",
       "value": "darius"
      }
     ]
    },
    {
     "id": 14,
     "name": "youpi",
     "type": "recruit",
     "x": 1504,
     "y": 704,
     "width": 32,
     "height": 32,
     "visible": true,
     "rotation": 0,
     "properties": [
      {
       "name": "entryId",
       "type": "string",
       "value": "youpi"
      }
     ]
    },
    {
     "id": 15,
     "name": "inquis",
     "type": "recruit",
     "x": 1888,
     "y": 608,
     "width": 32,
     "height": 32,
     "visible": true,
     "rotation": 0,
     "properties": [
      {
       "name": "entryId",
       "type": "string",
       "value": "inquis"
      }
     ]
    },
    {
     "id": 16,
     "name": "inqtroub",
     "type": "recruit",
     "x": 1888,
     "y": 896,
     "width": 32,
     "height": 32,
     "visible": true,
     "rotation": 0,
     "properties": [
      {
       "name": "entryId",
       "type": "string",
       "value": "inqtroub"
      }
     ]
    },
    {
     "id": 17,
     "name": "milf",
     "type": "recruit",
     "x": 1696,
     "y": 576,
     "width": 32,
     "height": 32,
     "visible": true,
     "rotation": 0,
     "properties": [
      {
       "name": "entryId",
       "type": "string",
       "value": "milf"
      }
     ]
    },
    {
     "id": 18,
     "name": "mystic",
     "type": "recruit",
     "x": 1664,
     "y": 640,
     "width": 32,
     "height": 32,
     "visible": true,
     "rotation": 0,
     "properties": [
      {
       "name": "entryId",
       "type": "string",
       "value": "mystic"
      }
     ]
    },
    {
     "id": 19,
     "name": "trisse",
     "type": "recruit",
     "x": 1216,
     "y": 864,
     "width": 32,
     "height": 32,
     "visible": true,
     "rotation": 0,
     "properties": [
      {
       "name": "entryId",
       "type": "string",
       "value": "trisse"
      }
     ]
    },
    {
     "id": 20,
     "name": "celeb",
     "type": "recruit",
     "x": 1120,
     "y": 704,
     "width": 32,
     "height": 32,
     "visible": true,
     "rotation": 0,
     "properties": [
      {
       "name": "entryId",
       "type": "string",
       "value": "celeb"
      }
     ]
    },
    {
     "id": 21,
     "name": "gluter",
     "type": "recruit",
     "x": 768,
     "y": 864,
     "width": 32,
     "height": 32,
     "visible": true,
     "rotation": 0,
     "properties": [
      {
       "name": "entryId",
       "type": "string",
       "value": "gluter"
      }
     ]
    },
    {
     "id": 22,
     "name": "ilfaut",
     "type": "recruit",
     "x": 1120,
     "y": 640,
     "width": 32,
     "height": 32,
     "visible": true,
     "rotation": 0,
     "properties": [
      {
       "name": "entryId",
       "type": "string",
       "value": "ilfaut"
      }
     ]
    },
    {
     "id": 23,
     "name": "marquis",
     "type": "recruit",
     "x": 960,
     "y": 608,
     "width": 32,
     "height": 32,
     "visible": true,
     "rotation": 0,
     "properties": [
      {
       "name": "entryId",
       "type": "string",
       "value": "marquis"
      }
     ]
    },
    {
     "id": 24,
     "name": "bipo",
     "type": "recruit",
     "x": 1216,
     "y": 640,
     "width": 32,
     "height": 32,
     "visible": true,
     "rotation": 0,
     "properties": [
      {
       "name": "entryId",
       "type": "string",
       "value": "bipo"
      }
     ]
    },
    {
     "id": 25,
     "name": "jhahan",
     "type": "recruit",
     "x": 960,
     "y": 576,
     "width": 32,
     "height": 32,
     "visible": true,
     "rotation": 0,
     "properties": [
      {
       "name": "entryId",
       "type": "string",
       "value": "jhahan"
      }
     ]
    },
    {
     "id": 26,
     "name": "taff",
     "type": "recruit",
     "x": 864,
     "y": 800,
     "width": 32,
     "height": 32,
     "visible": true,
     "rotation": 0,
     "properties": [
      {
       "name": "entryId",
       "type": "string",
       "value": "taff"
      }
     ]
    },
    {
     "id": 27,
     "name": "cuba",
     "type": "recruit",
     "x": 800,
     "y": 896,
     "width": 32,
     "height": 32,
     "visible": true,
     "rotation": 0,
     "properties": [
      {
       "name": "entryId",
       "type": "string",
       "value": "cuba"
      }
     ]
    },
    {
     "id": 28,
     "name": "memoire",
     "type": "recruit",
     "x": 992,
     "y": 64,
     "width": 32,
     "height": 32,
     "visible": true,
     "rotation": 0,
     "properties": [
      {
       "name": "entryId",
       "type": "string",
       "value": "memoire"
      }
     ]
    },
    {
     "id": 29,
     "name": "selfkill",
     "type": "recruit",
     "x": 992,
     "y": 64,
     "width": 32,
     "height": 32,
     "visible": true,
     "rotation": 0,
     "properties": [
      {
       "name": "entryId",
       "type": "string",
       "value": "selfkill"
      }
     ]
    },
    {
     "id": 30,
     "name": "rire",
     "type": "boss",
     "x": 128,
     "y": 1280,
     "width": 32,
     "height": 32,
     "visible": true,
     "rotation": 0,
     "properties": [
      {
       "name": "entryId",
       "type": "string",
       "value": "rire"
      }
     ]
    },
    {
     "id": 31,
     "name": "blague",
     "type": "boss",
     "x": 1184,
     "y": 1280,
     "width": 32,
     "height": 32,
     "visible": true,
     "rotation": 0,
     "properties": [
      {
       "name": "entryId",
       "type": "string",
       "value": "blague"
      }
     ]
    },
    {
     "id": 32,
     "name": "saumure",
     "type": "boss",
     "x": 1856,
     "y": 1280,
     "width": 32,
     "height": 32,
     "visible": true,
     "rotation": 0,
     "properties": [
      {
       "name": "entryId",
       "type": "string",
       "value": "saumure"
      }
     ]
    },
    {
     "id": 33,
     "name": "puits",
     "type": "boss",
     "x": 1856,
     "y": 768,
     "width": 32,
     "height": 32,
     "visible": true,
     "rotation": 0,
     "properties": [
      {
       "name": "entryId",
       "type": "string",
       "value": "puits"
      }
     ]
    },
    {
     "id": 34,
     "name": "maree",
     "type": "boss",
     "x": 1184,
     "y": 768,
     "width": 32,
     "height": 32,
     "visible": true,
     "rotation": 0,
     "properties": [
      {
       "name": "entryId",
       "type": "string",
       "value": "maree"
      }
     ]
    },
    {
     "id": 35,
     "name": "won",
     "type": "boss",
     "x": 1184,
     "y": 256,
     "width": 32,
     "height": 32,
     "visible": true,
     "rotation": 0,
     "properties": [
      {
       "name": "entryId",
       "type": "string",
       "value": "won"
      }
     ]
    }
   ]
  }
 ]
}